assets/img/icons/tg.svg

<svg width="24" height="24" viewBox="0 0 24 24" fill="none" xmlns="http://www.w3.org/2000/svg">
<path d="M23.9893 3.82161C23.6559 7.51086 22.2179 16.4668 21.4856 20.598C21.1765 22.3475 20.5658 22.9333 19.9746 22.9898C18.6923 23.1131 17.7166 22.0932 16.4733 21.2325C14.5292 19.8863 13.4294 19.0488 11.5413 17.7334C9.35874 16.215 10.7724 15.3801 12.0182 14.0159C12.3418 13.6588 17.9988 8.22765 18.1083 7.73695C18.1229 7.67529 18.1351 7.44663 18.0062 7.32332C17.8772 7.2 17.685 7.24368 17.5487 7.27707C17.3541 7.32332 14.2469 9.49166 8.22732 13.7847C7.34652 14.4244 6.54602 14.7352 5.83067 14.7198C5.04233 14.7018 3.52405 14.2471 2.39506 13.8617C1.0106 13.3864 -0.0891815 13.1347 0.00571132 12.3305C0.0568075 11.9092 0.604265 11.4802 1.65052 11.0408C8.0935 8.07607 12.388 6.12354 14.5389 5.1781C20.6777 2.48309 21.9527 2.01294 22.7824 2.0001C22.9649 1.99753 23.3737 2.04378 23.6389 2.26986C23.8627 2.45997 23.9236 2.71945 23.9528 2.90186C23.982 3.08427 24.0185 3.4979 23.9893 3.82161Z" fill="white"/>
</svg>

<svg width="24" height="24" fill="none" xmlns="http://www.w3.org/2000/svg"><path d="M23.99 3.822c-.334 3.689-1.772 12.645-2.504 16.776-.31 1.75-.92 2.335-1.511 2.392-1.283.123-2.258-.897-3.502-1.757-1.944-1.347-3.044-2.184-4.932-3.5-2.182-1.518-.769-2.353.477-3.717.324-.357 5.98-5.788 6.09-6.279.015-.062.027-.29-.102-.414-.129-.123-.321-.08-.457-.046-.195.046-3.302 2.215-9.322 6.508-.88.64-1.681.95-2.396.935-.789-.018-2.307-.473-3.436-.858-1.384-.476-2.484-.727-2.39-1.531.052-.422.6-.85 1.646-1.29 6.443-2.965 10.737-4.917 12.888-5.863C20.678 2.483 21.953 2.013 22.782 2c.183-.002.592.044.857.27.224.19.285.45.314.632.029.182.066.596.036.92Z" fill="#fff"/></svg>
